!!!OTL: Des Lindenwirts Rösel (3-84), S. 233
!!!id: P1057
**kern
*clefG2
*k[b-e-]
*B-:
{4b-
=1
8cc
8cc
4b-
8.a-
16g
4g
=2
8.g
16f
8f
8f
4f}
=3
{4g
=4
4b-
4a-
4c
4d
=5
4.f
8e-
4e-}
=6
{4b-
=7
8cc
8cc
4b-
8.a-
16g
4g
=8
8.b-
16f
8f
8f
4f}
=9
{4g
=10
4b-
4b-
8.b-
16b-
8b-
8b-
=11
2e-}
4.r
=12
{8g
=13
8.f
16f
8f
8f
4g}
8r
=14
{8a-
=15
8b-
16a
16a
8b-
8cc
4dd}
8r
=16
{8dd
=17
4ff
8ee-
8dd
4cc
8cc
8cc
=18
4dd
8b-
8g
4f}
8r
=19
{8f
=20
8.f
16f
8f
8f
4g}
8r
=21
{8a
=22
8b-
16a
16a
8b-
8cc
4dd}
8r
=23
{8dd
=24
4ff
4ee-
4g
8dd
8cc
=25
2b-}
4r
==
*-
!!!minrhy: 16
!!!meters: 4/4 ]  ZZ[10
!!!cut: Des Lindenwirts Rösel (3-84), S. 233
!!!reg: Lothringen
!!!trd: PINCK, Louis: Verklingende Weisen, Bd3, Metz 1933
!!!rhy1: X__  X_X_X__X_.XX__  X_.XX_X_X__
!!!rhy2: X__  X__X__X__X__  X__.X_X__
!!!key: P1057  16 Bb 4/4 ]  ZZ[10
!!!mod: ACHTTONSKALA DUR ?]  AMBITUS[11
!!!kad: -5-4-5-4-63-5-631
!!!akz: 2-7b-6-5_1-2-5-4_2-7b1-5_11-4_-5-6_13_523-5_-5-6_13_5-61_
!!!fot: 'a__b__aw_c__d__e__f__g__h__i__
!!!for: 'a__b__a__c__d__e__f__d__e__g__
!!!fok: '\__~d_\__^d_-__/__^d_/__/__^d_
!! PHRAS[AUFTAKTIG]
!!!fkt: Untreue, Liebe zu jemand anderem
!! LOTH VKL
!! PR[30] 2K[0] 2G[14] 3K[9] 3G[11] 4A[5] 4Ü[0] 5A[0] 6K[0] 6G[0]
!! 7K[0] 7G[0] 8A[0] MEHR[0] SI[39] ABS[44] SR[14] SP[25]
!! ST[14] 2k[2] 2g[14] 3k[5] 3g[7] 4d[0] 4ü[0] 5d[5] 6k[0] 6g[0]
!! 7k[0] 7g[0] 8d[0] mehr[0] si[32] dm[+7] sr[16] sp[16]
!! 1F[14] 2F[16] 3F[47] 4F[8] LF[0] 2P[14] 3P[0] 4P[0] TRI[0] DF[5] AB[49]
!! TF[0] U3K[0] U3[0] U4[0] U4Ü[0] U5[4] U6K[0] U6[0] U7K[0] U7[0]
!! N1[16] N2K[0] N2[9] N3K[0] N3[16] N4[16] N4Ü[0] N5[27] N6K[0] N6[11]
!!!n7k: 0] N7[0] O1[2] O2K[0] O2[0] O3K[0] O3[0] HÖ[0
